X: 0822
T: THE WIND THAT SHAKES THE BARLEY
B: Oliver Ditson "The Boston Collection of Instrumental Music" 1910 p.82 #2
F: http://conquest.imslp.info/files/imglnks/usimg/8/8f/IMSLP175643-PMLP309456-bostoncollection00bost_bw.pdf
%: 2012 John Chambers <jc:trillian.mit.edu>
M: 4/4
L: 1/8
K: D
|:\
d2dc dA FA | B2BA B2d2 |\
A2A^G AFD f | gfed B2d2 :|
f2fd g2ge | f2fd cecA |\
f2fd g2ge | afed B2d2 ||
f2fd g2ge | f2fd cecA |\
fa fd gb ge | afed B2d2 |]

%%sep 1 1 500
%%sep 1 1 500
